flaticon/emoticons/winking-1.svg

<svg xmlns="http://www.w3.org/2000/svg" width="32" height="32" viewBox="0 0 24 24">
    <path d="M16.351562 15.863281C16.101562 15.757812 15.816406 15.878906 15.710938 16.128906 14.792969 18.332031 12.070312 19.382812 9.765625 18.425781 9.515625 18.320312 9.230469 18.4375 9.125 18.6875 9.019531 18.9375 9.136719 19.226562 9.386719 19.328125 10.066406 19.613281 10.804688 19.753906 11.546875 19.753906 12.238281 19.753906 12.9375 19.628906 13.589844 19.382812 14.988281 18.847656 16.0625 17.828125 16.613281 16.503906 16.71875 16.253906 16.601562 15.96875 16.351562 15.863281zM16.164062 13.390625C16.164062 13.929688 15.726562 14.371094 15.183594 14.371094 14.644531 14.371094 14.203125 13.929688 14.203125 13.390625 14.203125 12.847656 14.644531 12.410156 15.183594 12.410156 15.726562 12.410156 16.164062 12.847656 16.164062 13.390625zM16.164062 13.390625"/>
    <path d="M 22.476562 9.785156 C 22.449219 9.648438 22.410156 9.519531 22.378906 9.386719 C 22.347656 9.257812 22.320312 9.125 22.28125 8.996094 C 22.226562 8.792969 22.160156 8.589844 22.089844 8.390625 C 22.058594 8.300781 22.03125 8.207031 21.996094 8.121094 C 21.910156 7.882812 21.8125 7.65625 21.710938 7.429688 C 21.6875 7.378906 21.664062 7.324219 21.640625 7.273438 C 21.527344 7.035156 21.402344 6.800781 21.273438 6.574219 C 21.25 6.535156 21.226562 6.492188 21.207031 6.453125 C 21.089844 6.257812 20.964844 6.070312 20.839844 5.882812 C 20.789062 5.804688 20.738281 5.726562 20.683594 5.652344 C 20.617188 5.554688 20.539062 5.464844 20.46875 5.371094 C 18.484375 2.78125 15.378906 1.144531 11.921875 1.144531 C 7.859375 1.144531 4.273438 3.484375 2.492188 7.007812 C 2.460938 7.066406 2.429688 7.125 2.398438 7.1875 C 2.320312 7.351562 2.246094 7.523438 2.175781 7.695312 C 2.121094 7.820312 2.066406 7.945312 2.019531 8.074219 C 1.964844 8.214844 1.921875 8.363281 1.871094 8.507812 C 1.820312 8.664062 1.769531 8.820312 1.722656 8.976562 C 1.683594 9.121094 1.648438 9.269531 1.617188 9.417969 C 1.585938 9.539062 1.550781 9.660156 1.523438 9.785156 C 0.640625 10.261719 0 11.304688 0 12.324219 C 0 13.378906 0.621094 14.328125 1.570312 14.761719 C 2.792969 19.539062 7.046875 22.855469 12 22.855469 C 16.953125 22.855469 21.207031 19.539062 22.429688 14.761719 C 23.378906 14.328125 24 13.378906 24 12.324219 C 24 11.304688 23.359375 10.261719 22.476562 9.785156 Z M 2.589844 9.542969 C 2.621094 9.410156 2.65625 9.277344 2.695312 9.148438 C 2.738281 9 2.785156 8.851562 2.835938 8.707031 C 2.875 8.59375 2.914062 8.480469 2.957031 8.371094 C 3.023438 8.199219 3.09375 8.03125 3.167969 7.867188 C 3.199219 7.796875 3.230469 7.726562 3.265625 7.65625 C 4.835938 4.398438 8.132812 2.285156 12 2.285156 C 15 2.285156 17.660156 3.554688 19.4375 5.644531 C 19.4375 5.648438 19.441406 5.652344 19.445312 5.65625 C 19.597656 5.835938 19.742188 6.027344 19.878906 6.21875 C 19.941406 6.304688 20 6.394531 20.0625 6.484375 C 20.144531 6.605469 20.222656 6.726562 20.296875 6.851562 C 20.378906 6.984375 20.453125 7.121094 20.53125 7.257812 C 20.582031 7.359375 20.636719 7.457031 20.6875 7.558594 C 20.761719 7.707031 20.832031 7.863281 20.898438 8.019531 C 20.941406 8.121094 20.984375 8.222656 21.027344 8.328125 C 21.085938 8.476562 21.140625 8.632812 21.191406 8.789062 C 21.230469 8.90625 21.269531 9.027344 21.308594 9.152344 C 21.347656 9.292969 21.386719 9.4375 21.421875 9.585938 C 21.441406 9.660156 21.457031 9.734375 21.472656 9.8125 C 19.46875 10.457031 17.980469 9.023438 17.0625 7.652344 C 16.894531 7.40625 16.628906 7.238281 16.335938 7.191406 C 16.035156 7.148438 15.726562 7.230469 15.488281 7.421875 C 10.929688 11.0625 4.335938 10.09375 2.542969 9.746094 C 2.558594 9.675781 2.574219 9.609375 2.589844 9.542969 Z M 21.855469 13.9375 C 21.695312 13.992188 21.574219 14.125 21.535156 14.292969 C 20.503906 18.757812 16.582031 21.875 12 21.875 C 7.417969 21.875 3.496094 18.757812 2.464844 14.292969 C 2.425781 14.128906 2.304688 13.992188 2.144531 13.9375 C 1.449219 13.703125 0.980469 13.050781 0.980469 12.324219 C 0.980469 11.660156 1.4375 10.9375 2.015625 10.636719 C 2.582031 10.765625 4.355469 11.128906 6.625 11.128906 C 9.492188 11.128906 13.140625 10.550781 16.097656 8.1875 C 16.132812 8.160156 16.167969 8.160156 16.1875 8.164062 C 16.222656 8.167969 16.242188 8.191406 16.246094 8.199219 C 17.863281 10.609375 19.902344 11.46875 22.015625 10.65625 C 22.582031 10.964844 23.019531 11.671875 23.019531 12.324219 C 23.019531 13.050781 22.550781 13.703125 21.855469 13.9375 Z M 21.855469 13.9375"/>
    <path d="M 10.316406 14.019531 C 10.507812 14.066406 10.707031 13.996094 10.828125 13.835938 C 10.945312 13.675781 10.957031 13.460938 10.855469 13.292969 C 10.472656 12.65625 9.804688 12.175781 9.023438 11.980469 C 8.242188 11.785156 7.429688 11.890625 6.792969 12.273438 C 6.558594 12.410156 6.484375 12.710938 6.621094 12.945312 C 6.761719 13.175781 7.0625 13.25 7.292969 13.113281 C 7.847656 12.78125 8.582031 12.792969 9.175781 13.066406 C 8.914062 13.136719 8.65625 13.242188 8.417969 13.382812 C 7.773438 13.769531 7.316406 14.386719 7.132812 15.117188 C 7.066406 15.378906 7.222656 15.648438 7.488281 15.710938 C 7.527344 15.722656 7.566406 15.726562 7.605469 15.726562 C 7.824219 15.726562 8.027344 15.578125 8.082031 15.355469 C 8.328125 14.371094 9.332031 13.773438 10.316406 14.019531 Z M 10.316406 14.019531"/>
</svg>

<svg xmlns="http://www.w3.org/2000/svg" width="32" height="32" viewBox="0 0 24 24">
    <path d="M16.352 15.863a.49.49 0 0 0-.641.266c-.918 2.203-3.64 3.254-5.945 2.297a.488.488 0 0 0-.641.262c-.105.25.012.539.262.64.68.285 1.418.426 2.16.426.691 0 1.39-.125 2.043-.371 1.398-.535 2.473-1.555 3.023-2.88a.488.488 0 0 0-.261-.64zm0 0M16.164 13.39a.981.981 0 1 1-1.962 0 .981.981 0 0 1 1.962 0zm0 0"/>
    <path d="M22.477 9.785c-.028-.137-.067-.265-.098-.398-.031-.13-.059-.262-.098-.39a8.365 8.365 0 0 0-.191-.606c-.031-.09-.059-.184-.094-.27a9.862 9.862 0 0 0-.285-.691l-.07-.157a10.786 10.786 0 0 0-.368-.699 1.856 1.856 0 0 1-.066-.12c-.117-.196-.242-.384-.367-.571-.05-.078-.102-.156-.156-.23-.067-.098-.145-.188-.215-.282a10.745 10.745 0 0 0-8.547-4.226c-4.063 0-7.649 2.34-9.43 5.863a7.577 7.577 0 0 0-.094.18 9.959 9.959 0 0 0-.222.507c-.055.125-.11.25-.156.38-.055.14-.098.288-.149.433-.05.156-.101.312-.148.469-.04.144-.075.293-.106.441-.031.121-.066.242-.094.367C.641 10.262 0 11.305 0 12.325c0 1.054.621 2.003 1.57 2.437A10.721 10.721 0 0 0 12 22.855c4.953 0 9.207-3.316 10.43-8.093A2.683 2.683 0 0 0 24 12.324c0-1.02-.64-2.062-1.523-2.539zM2.59 9.543a8.29 8.29 0 0 1 .246-.836c.039-.113.078-.227.121-.336.066-.172.137-.34.211-.504.031-.07.062-.14.098-.21C4.836 4.397 8.133 2.284 12 2.284c3 0 5.66 1.27 7.438 3.36a8.613 8.613 0 0 1 .441.574c.062.086.121.176.183.265.083.121.16.243.235.368.082.132.156.27.234.406.051.101.106.199.157.3.074.149.144.305.21.462l.13.308c.058.149.113.305.163.461.04.117.079.238.118.363a11.634 11.634 0 0 1 .164.66c-2.004.645-3.493-.789-4.41-2.16a1.093 1.093 0 0 0-.727-.46c-.3-.044-.61.038-.848.23-4.558 3.64-11.152 2.672-12.945 2.324l.047-.203zm19.265 4.395a.491.491 0 0 0-.32.355A9.741 9.741 0 0 1 12 21.875a9.741 9.741 0 0 1-9.535-7.582.498.498 0 0 0-.32-.355A1.708 1.708 0 0 1 .98 12.323c0-.664.458-1.386 1.036-1.687.566.129 2.34.492 4.609.492 2.867 0 6.516-.578 9.473-2.941a.11.11 0 0 1 .09-.024.078.078 0 0 1 .058.035c1.617 2.41 3.656 3.27 5.77 2.457.566.309 1.004 1.016 1.004 1.668 0 .727-.47 1.38-1.165 1.614zm0 0"/>
    <path d="M10.316 14.02a.492.492 0 0 0 .54-.727c-.383-.637-1.051-1.117-1.833-1.313-.78-.195-1.593-.09-2.23.293a.49.49 0 0 0-.172.672c.14.23.441.305.672.168.555-.332 1.289-.32 1.883-.047-.262.07-.52.176-.758.317a2.81 2.81 0 0 0-1.285 1.734.485.485 0 0 0 .472.61.492.492 0 0 0 .477-.372 1.843 1.843 0 0 1 2.234-1.335zm0 0"/>
</svg>
